images/zhuyin/05.svg

<svg width="50" height="50" viewBox="0 0 50 50" fill="none" xmlns="http://www.w3.org/2000/svg">
<path d="M20.2188 14.3984C20.4531 14.3984 20.8906 14.6406 21.5312 15.125C22.0938 15.6094 22.375 15.9844 22.375 16.25C22.375 16.4375 22.2109 16.6641 21.8828 16.9297C21.5859 17.0859 20.9531 17.9375 19.9844 19.4844C19.2656 20.6094 18.9062 21.2578 18.9062 21.4297C18.9062 21.6016 19.0625 21.6875 19.375 21.6875C19.4375 21.6875 19.7266 21.625 20.2422 21.5C23.0703 20.875 25.9453 20.3672 28.8672 19.9766C29.6953 19.8828 30.3672 19.7578 30.8828 19.6016C31.2578 19.4453 31.5156 19.3672 31.6562 19.3672C31.9531 19.3672 32.3594 19.6875 32.875 20.3281C33.4375 21.0312 33.7188 21.5156 33.7188 21.7812C33.7188 21.8594 33.6016 22.0703 33.3672 22.4141C33.1953 22.6172 33.0469 22.9922 32.9219 23.5391C32.0312 27.3203 30.8281 30.3047 29.3125 32.4922C28.1875 34.1641 27.1875 35 26.3125 35C25.9219 35 25.625 34.7188 25.4219 34.1562C25.125 33.375 24.5938 32.5859 23.8281 31.7891C23.7344 31.7266 23.6875 31.6719 23.6875 31.625C23.6875 31.5625 23.7188 31.5312 23.7812 31.5312L24.2031 31.7188C25.1562 32.2344 25.8594 32.4922 26.3125 32.4922C27.0781 32.4922 28.0391 31.1562 29.1953 28.4844C30.6484 25.3594 31.375 23.0625 31.375 21.5938C31.375 21.2812 31.0938 21.125 30.5312 21.125C29.375 21.125 27.4609 21.3828 24.7891 21.8984L22.6094 22.3203C22.875 22.5234 23.1094 22.7578 23.3125 23.0234C23.625 23.4297 23.7812 23.7344 23.7812 23.9375C23.7812 24.5 23.0703 25.7656 21.6484 27.7344C20.5234 29.4219 19.3594 30.7266 18.1562 31.6484C17.2812 32.3828 16.6875 32.75 16.375 32.75C16.3125 32.75 16.2812 32.7188 16.2812 32.6562C16.2812 32.6094 16.3359 32.4922 16.4453 32.3047C17.6797 31.2109 18.8906 29.6016 20.0781 27.4766C21.2344 25.4141 21.8125 23.9219 21.8125 23C21.8125 22.875 21.7422 22.7188 21.6016 22.5312C20.4453 22.7969 19.5 23.0625 18.7656 23.3281C18.375 23.5469 18.0781 23.6562 17.875 23.6562C17.6875 23.6562 17.3906 23.5078 16.9844 23.2109C16.5781 22.9297 16.375 22.7031 16.375 22.5312C16.375 22.4219 16.5938 22.0859 17.0312 21.5234C18.3438 19.3984 19.2812 17.5469 19.8438 15.9688C20.0312 15.5469 20.0625 15.1406 19.9375 14.75C19.9375 14.5156 20.0312 14.3984 20.2188 14.3984Z" fill="#333333"/>
<path d="M21.5312 15.125L21.8575 14.7461L21.8455 14.7358L21.8328 14.7262L21.5312 15.125ZM21.8828 16.9297L22.1157 17.3721L22.1592 17.3492L22.1974 17.3183L21.8828 16.9297ZM19.9844 19.4844L20.4057 19.7536L20.4081 19.7498L19.9844 19.4844ZM20.2422 21.5L20.1343 21.0117L20.1244 21.0141L20.2422 21.5ZM28.8672 19.9766L28.8109 19.4796L28.8009 19.481L28.8672 19.9766ZM30.8828 19.6016L31.0278 20.0801L31.0519 20.0728L31.0751 20.0631L30.8828 19.6016ZM32.875 20.3281L33.2654 20.0158L33.2645 20.0146L32.875 20.3281ZM33.3672 22.4141L33.7489 22.737L33.7657 22.7172L33.7803 22.6957L33.3672 22.4141ZM32.9219 23.5391L33.4086 23.6537L33.4093 23.6505L32.9219 23.5391ZM29.3125 32.4922L28.9015 32.2074L28.8977 32.2131L29.3125 32.4922ZM25.4219 34.1562L25.8922 33.9864L25.8893 33.9786L25.4219 34.1562ZM23.8281 31.7891L24.1887 31.4426L24.1509 31.4033L24.1055 31.373L23.8281 31.7891ZM23.7812 31.5312L23.9843 31.0743L23.8874 31.0312H23.7812V31.5312ZM24.2031 31.7188L24.441 31.279L24.4239 31.2697L24.4062 31.2618L24.2031 31.7188ZM29.1953 28.4844L28.7418 28.2735L28.7364 28.2858L29.1953 28.4844ZM24.7891 21.8984L24.6943 21.4075L24.6941 21.4075L24.7891 21.8984ZM22.6094 22.3203L22.5144 21.8294L21.421 22.041L22.3056 22.7175L22.6094 22.3203ZM23.3125 23.0234L22.9153 23.3272L22.9162 23.3283L23.3125 23.0234ZM21.6484 27.7344L21.2431 27.4416L21.2376 27.4492L21.2324 27.457L21.6484 27.7344ZM18.1562 31.6484L17.8521 31.2516L17.8433 31.2583L17.8348 31.2654L18.1562 31.6484ZM16.4453 32.3047L16.1137 31.9305L16.0538 31.9836L16.0134 32.0528L16.4453 32.3047ZM20.0781 27.4766L19.642 27.2321L19.6417 27.2327L20.0781 27.4766ZM21.6016 22.5312L22.0016 22.2312L21.8065 21.9711L21.4896 22.0439L21.6016 22.5312ZM18.7656 23.3281L18.5956 22.8579L18.5571 22.8719L18.5213 22.8919L18.7656 23.3281ZM16.9844 23.2109L17.2795 22.8071L17.269 22.7998L16.9844 23.2109ZM17.0312 21.5234L17.4259 21.8304L17.4425 21.8091L17.4566 21.7862L17.0312 21.5234ZM19.8438 15.9688L19.3868 15.7657L19.3791 15.783L19.3728 15.8009L19.8438 15.9688ZM19.9375 14.75H19.4375V14.8281L19.4613 14.9024L19.9375 14.75ZM20.2188 14.8984C20.1987 14.8984 20.2697 14.9008 20.4805 15.0175C20.67 15.1224 20.9184 15.2885 21.2297 15.5238L21.8328 14.7262C21.5035 14.4772 21.2128 14.2799 20.9648 14.1426C20.7381 14.0171 20.4732 13.8984 20.2188 13.8984V14.8984ZM21.205 15.5039C21.4728 15.7345 21.6539 15.9226 21.7641 16.0695C21.8838 16.2292 21.875 16.281 21.875 16.25H22.875C22.875 15.9534 22.7255 15.6848 22.5641 15.4695C22.393 15.2415 22.1522 14.9999 21.8575 14.7461L21.205 15.5039ZM21.875 16.25C21.875 16.1981 21.8961 16.1995 21.847 16.2673C21.8003 16.3318 21.7136 16.4234 21.5682 16.5411L22.1974 17.3183C22.3802 17.1704 22.5396 17.0159 22.6569 16.8538C22.7719 16.695 22.875 16.4894 22.875 16.25H21.875ZM21.6499 16.4872C21.496 16.5682 21.3528 16.7047 21.2297 16.8382C21.0969 16.9822 20.9479 17.167 20.7842 17.3873C20.4563 17.8286 20.0478 18.4411 19.5606 19.219L20.4081 19.7498C20.8897 18.9808 21.282 18.394 21.5869 17.9838C21.7396 17.7783 21.8651 17.6243 21.9647 17.5163C22.0739 17.3979 22.1212 17.3693 22.1157 17.3721L21.6499 16.4872ZM19.563 19.2152C19.2017 19.7807 18.9257 20.2343 18.7385 20.5721C18.6453 20.7402 18.5695 20.8879 18.5157 21.0108C18.4888 21.0721 18.4641 21.1347 18.4453 21.1954C18.4289 21.2487 18.4062 21.3338 18.4062 21.4297H19.4062C19.4062 21.4826 19.3949 21.5098 19.4008 21.4904C19.4046 21.4783 19.4136 21.4532 19.4316 21.4121C19.4676 21.3299 19.5266 21.2129 19.6131 21.0568C19.7853 20.7462 20.0483 20.313 20.4057 19.7536L19.563 19.2152ZM18.4062 21.4297C18.4062 21.5509 18.4347 21.6808 18.5079 21.8016C18.5806 21.9215 18.6807 22.0052 18.7825 22.0612C18.9709 22.1648 19.1893 22.1875 19.375 22.1875V21.1875C19.3184 21.1875 19.2814 21.1835 19.2601 21.1796C19.2377 21.1755 19.2436 21.1735 19.2644 21.1849C19.288 21.1979 19.3295 21.2279 19.3631 21.2833C19.3973 21.3397 19.4062 21.3944 19.4062 21.4297H18.4062ZM19.375 22.1875C19.4415 22.1875 19.5137 22.1748 19.5519 22.1681C19.6045 22.1587 19.6694 22.1455 19.7443 22.1293C19.8949 22.0968 20.1008 22.0488 20.36 21.9859L20.1244 21.0141C19.868 21.0762 19.6715 21.122 19.533 21.1519C19.4634 21.167 19.4121 21.1772 19.3768 21.1835C19.3271 21.1923 19.3397 21.1875 19.375 21.1875V22.1875ZM20.3501 21.9882C23.1642 21.3663 26.0253 20.8609 28.9334 20.4722L28.8009 19.481C25.8653 19.8734 22.9764 20.3837 20.1343 21.0118L20.3501 21.9882ZM28.9234 20.4734C29.7672 20.3779 30.472 20.2485 31.0278 20.0801L30.7378 19.1231C30.2623 19.2671 29.6234 19.3878 28.8109 19.4797L28.9234 20.4734ZM31.0751 20.0631C31.2541 19.9885 31.3954 19.9367 31.5024 19.9043C31.619 19.869 31.6615 19.8672 31.6562 19.8672V18.8672C31.5104 18.8672 31.3537 18.9045 31.2124 18.9473C31.0616 18.993 30.8866 19.0583 30.6905 19.14L31.0751 20.0631ZM31.6562 19.8672C31.6353 19.8672 31.7003 19.8631 31.874 20.0001C32.0356 20.1274 32.2392 20.3356 32.4855 20.6416L33.2645 20.0146C32.9952 19.68 32.7379 19.4077 32.4932 19.2148C32.2606 19.0315 31.9741 18.8672 31.6562 18.8672V19.8672ZM32.4846 20.6405C32.7584 20.9828 32.9524 21.2579 33.0754 21.4698C33.2108 21.703 33.2188 21.7909 33.2188 21.7812H34.2188C34.2188 21.506 34.0861 21.2189 33.9402 20.9677C33.782 20.6952 33.5541 20.3766 33.2654 20.0158L32.4846 20.6405ZM33.2188 21.7812C33.2188 21.733 33.2271 21.6995 33.2297 21.6895C33.233 21.6771 33.2353 21.6722 33.2334 21.6769C33.2293 21.6869 33.2179 21.7118 33.1938 21.7552C33.146 21.8412 33.0679 21.9655 32.9541 22.1324L33.7803 22.6957C33.9009 22.5189 33.9985 22.3658 34.0679 22.2409C34.1024 22.1788 34.1349 22.1148 34.1601 22.0526C34.1797 22.0043 34.2188 21.9018 34.2188 21.7812H33.2188ZM32.9855 22.0911C32.7305 22.3925 32.5617 22.8709 32.4344 23.4277L33.4093 23.6505C33.5321 23.1134 33.6602 22.8419 33.7489 22.737L32.9855 22.0911ZM32.4352 23.4244C31.5529 27.1703 30.3691 30.0893 28.9015 32.2074L29.7235 32.7769C31.2872 30.5201 32.5096 27.4703 33.4086 23.6537L32.4352 23.4244ZM28.8977 32.2131C28.3488 33.0287 27.8479 33.6134 27.3981 33.9894C26.9455 34.3678 26.5872 34.5 26.3125 34.5V35.5C26.9128 35.5 27.492 35.2143 28.0394 34.7567C28.5896 34.2967 29.1512 33.6275 29.7273 32.7713L28.8977 32.2131ZM26.3125 34.5C26.2389 34.5 26.0683 34.4741 25.8922 33.9864L24.9516 34.3261C25.1817 34.9634 25.6049 35.5 26.3125 35.5V34.5ZM25.8893 33.9786C25.5621 33.1178 24.9867 32.2732 24.1887 31.4426L23.4676 32.1355C24.2008 32.8987 24.6879 33.6322 24.9545 34.3339L25.8893 33.9786ZM24.1055 31.373C24.0778 31.3546 24.0841 31.3546 24.1023 31.3758C24.1166 31.3925 24.1875 31.4795 24.1875 31.625H23.1875C23.1875 31.8174 23.2818 31.9552 23.343 32.0266C23.4081 32.1025 23.4847 32.161 23.5508 32.2051L24.1055 31.373ZM24.1875 31.625C24.1875 31.6708 24.1757 31.797 24.0645 31.9082C23.9533 32.0195 23.8271 32.0312 23.7812 32.0312V31.0312C23.6729 31.0312 23.4998 31.0587 23.3574 31.2011C23.2149 31.3436 23.1875 31.5167 23.1875 31.625H24.1875ZM23.5782 31.9882L24.0001 32.1757L24.4062 31.2618L23.9843 31.0743L23.5782 31.9882ZM23.9652 32.1585C24.4545 32.4232 24.8915 32.6283 25.2732 32.7683C25.6487 32.906 26.0013 32.9922 26.3125 32.9922V31.9922C26.1706 31.9922 25.945 31.9495 25.6174 31.8294C25.296 31.7115 24.9049 31.5299 24.441 31.279L23.9652 32.1585ZM26.3125 32.9922C26.6531 32.9922 26.9622 32.8438 27.2293 32.6371C27.4973 32.4298 27.7577 32.1376 28.0133 31.7822C28.5249 31.071 29.0709 30.0308 29.6542 28.683L28.7364 28.2858C28.1635 29.6098 27.6509 30.5735 27.2015 31.1983C26.9767 31.5108 26.781 31.7197 26.6174 31.8463C26.4529 31.9735 26.3547 31.9922 26.3125 31.9922V32.9922ZM29.6487 28.6952C31.1019 25.57 31.875 23.1837 31.875 21.5938H30.875C30.875 22.9413 30.195 25.1487 28.7419 28.2736L29.6487 28.6952ZM31.875 21.5938C31.875 21.4382 31.8392 21.2783 31.751 21.1314C31.6633 20.9853 31.5402 20.8792 31.4069 20.8051C31.1554 20.6654 30.8424 20.625 30.5312 20.625V21.625C30.6502 21.625 30.7415 21.6334 30.8093 21.6459C30.8782 21.6587 30.911 21.6736 30.9212 21.6793C30.9286 21.6833 30.9109 21.6749 30.8935 21.6459C30.8757 21.6162 30.875 21.593 30.875 21.5938H31.875ZM30.5312 20.625C29.3226 20.625 27.3669 20.8917 24.6943 21.4075L24.8838 22.3894C27.5549 21.8739 29.4274 21.625 30.5312 21.625V20.625ZM24.6941 21.4075L22.5144 21.8294L22.7044 22.8112L24.8841 22.3893L24.6941 21.4075ZM22.3056 22.7175C22.5361 22.8937 22.7391 23.0967 22.9153 23.3272L23.7097 22.7197C23.4797 22.4189 23.2139 22.1531 22.9131 21.9231L22.3056 22.7175ZM22.9162 23.3283C23.0621 23.518 23.1599 23.6692 23.2192 23.7848C23.2828 23.9089 23.2812 23.9521 23.2812 23.9375H24.2812C24.2812 23.7198 24.2016 23.5091 24.109 23.3285C24.012 23.1394 23.8754 22.9352 23.7088 22.7186L22.9162 23.3283ZM23.2812 23.9375C23.2812 23.9864 23.2625 24.1028 23.1819 24.31C23.1046 24.5089 22.9832 24.7591 22.8121 25.0637C22.47 25.6727 21.9492 26.4639 21.2431 27.4416L22.0538 28.0271C22.7695 27.0361 23.3151 26.2101 23.684 25.5535C23.8683 25.2253 24.0136 24.9305 24.114 24.6724C24.2111 24.4226 24.2812 24.1699 24.2812 23.9375H23.2812ZM21.2324 27.457C20.1283 29.1133 18.9997 30.3722 17.8521 31.2516L18.4604 32.0453C19.719 31.0809 20.9186 29.7305 22.0645 28.0117L21.2324 27.457ZM17.8348 31.2654C17.4057 31.6256 17.0594 31.8838 16.7917 32.0494C16.658 32.1321 16.5531 32.1858 16.4743 32.2177C16.3908 32.2516 16.3629 32.25 16.375 32.25V33.25C16.6847 33.25 17.0174 33.0855 17.3177 32.8999C17.6437 32.6982 18.0318 32.4057 18.4777 32.0314L17.8348 31.2654ZM16.375 32.25C16.4208 32.25 16.547 32.2618 16.6582 32.373C16.7695 32.4842 16.7812 32.6104 16.7812 32.6562H15.7812C15.7812 32.7646 15.8087 32.9377 15.9511 33.0801C16.0936 33.2226 16.2667 33.25 16.375 33.25V32.25ZM16.7812 32.6562C16.7812 32.6961 16.7758 32.7256 16.7729 32.7391C16.7698 32.7541 16.7667 32.7636 16.7658 32.766C16.7645 32.7702 16.7662 32.7642 16.7754 32.7446C16.7934 32.706 16.8258 32.6447 16.8772 32.5566L16.0134 32.0528C15.9554 32.1521 15.9058 32.2432 15.8692 32.3218C15.8509 32.3608 15.8322 32.4046 15.8172 32.4498C15.8051 32.4859 15.7812 32.5631 15.7812 32.6562H16.7812ZM16.7769 32.6789C18.0682 31.5347 19.3115 29.8734 20.5146 27.7205L19.6417 27.2327C18.4698 29.3297 17.2912 30.8872 16.1137 31.9305L16.7769 32.6789ZM20.5143 27.7211C21.099 26.678 21.5446 25.7669 21.8451 24.9912C22.1426 24.2235 22.3125 23.5522 22.3125 23H21.3125C21.3125 23.3697 21.1934 23.9054 20.9127 24.6299C20.6351 25.3464 20.2135 26.2126 19.642 27.2321L20.5143 27.7211ZM22.3125 23C22.3125 22.7067 22.1581 22.4399 22.0016 22.2312L21.2016 22.8313C21.2573 22.9055 21.2881 22.9594 21.3038 22.9942C21.3201 23.0303 21.3125 23.0293 21.3125 23H22.3125ZM21.4896 22.0439C20.3226 22.312 19.356 22.5829 18.5956 22.8579L18.9357 23.7983C19.644 23.5421 20.568 23.2817 21.7135 23.0186L21.4896 22.0439ZM18.5213 22.8919C18.1357 23.1078 17.9379 23.1562 17.875 23.1562V24.1562C18.2183 24.1562 18.6143 23.9859 19.0099 23.7644L18.5213 22.8919ZM17.875 23.1562C17.8975 23.1562 17.86 23.1601 17.7353 23.0977C17.6211 23.0406 17.4702 22.9467 17.2794 22.8072L16.6894 23.6146C16.9048 23.7721 17.1055 23.9008 17.2881 23.9921C17.4603 24.0782 17.665 24.1562 17.875 24.1562V23.1562ZM17.269 22.7998C17.0807 22.6695 16.964 22.5682 16.8996 22.4963C16.8845 22.4795 16.8742 22.4663 16.8673 22.4567C16.8604 22.4471 16.8582 22.4426 16.8585 22.4433C16.8586 22.4434 16.875 22.4752 16.875 22.5312H15.875C15.875 22.8054 16.0287 23.0229 16.1551 23.1639C16.2938 23.3186 16.4818 23.4711 16.6998 23.622L17.269 22.7998ZM16.875 22.5312C16.875 22.6299 16.8388 22.6801 16.8648 22.6272C16.8796 22.5971 16.9086 22.5461 16.9581 22.4701C17.0561 22.3195 17.2103 22.1077 17.4259 21.8304L16.6366 21.2165C16.4147 21.5017 16.2407 21.7391 16.1201 21.9244C16.0602 22.0164 16.0071 22.1051 15.9672 22.1863C15.9385 22.2447 15.875 22.3779 15.875 22.5312H16.875ZM17.4566 21.7862C18.7796 19.6443 19.7362 17.7598 20.3147 16.1366L19.3728 15.8009C18.8263 17.334 17.9079 19.1526 16.6059 21.2607L17.4566 21.7862ZM20.3007 16.1718C20.5313 15.6529 20.5809 15.1199 20.4137 14.5976L19.4613 14.9024C19.5441 15.1613 19.5312 15.4408 19.3868 15.7657L20.3007 16.1718ZM20.4375 14.75C20.4375 14.6862 20.4524 14.7309 20.3982 14.7987C20.3684 14.836 20.3292 14.8648 20.288 14.8819C20.2499 14.8978 20.2231 14.8984 20.2188 14.8984V13.8984C20.0146 13.8984 19.7824 13.9677 19.6174 14.174C19.4694 14.3589 19.4375 14.5794 19.4375 14.75H20.4375Z" fill="#333333"/>
</svg>

<svg xmlns="http://www.w3.org/2000/svg" width="50" height="50" fill="none"><path fill="#333" d="M20.219 14.398c.234 0 .672.243 1.312.727.563.484.844.86.844 1.125 0 .188-.164.414-.492.68-.297.156-.93 1.008-1.899 2.554-.718 1.125-1.078 1.774-1.078 1.946 0 .172.157.258.469.258.063 0 .352-.063.867-.188a103.509 103.509 0 0 1 8.625-1.523c.828-.094 1.5-.22 2.016-.375.375-.157.633-.235.773-.235.297 0 .703.32 1.219.961.563.703.844 1.188.844 1.453 0 .078-.117.29-.352.633-.172.203-.32.578-.445 1.125-.89 3.781-2.094 6.766-3.61 8.953-1.125 1.672-2.125 2.508-3 2.508-.39 0-.687-.281-.89-.844-.297-.781-.828-1.57-1.594-2.367-.094-.062-.14-.117-.14-.164 0-.063.03-.094.093-.094l.422.188c.953.515 1.656.773 2.11.773.765 0 1.726-1.336 2.882-4.008 1.453-3.125 2.18-5.422 2.18-6.89 0-.313-.281-.469-.844-.469-1.156 0-3.07.258-5.742.773l-2.18.422c.266.203.5.438.703.703.313.407.47.711.47.915 0 .562-.712 1.828-2.134 3.796-1.125 1.688-2.289 2.993-3.492 3.914-.875.735-1.468 1.102-1.781 1.102-.063 0-.094-.031-.094-.094 0-.047.055-.164.164-.351 1.235-1.094 2.446-2.703 3.633-4.828 1.156-2.063 1.735-3.555 1.735-4.477 0-.125-.07-.281-.211-.469-1.157.266-2.102.532-2.836.797-.391.219-.688.328-.891.328-.188 0-.484-.148-.89-.445-.407-.281-.61-.508-.61-.68 0-.11.219-.445.656-1.008 1.313-2.125 2.25-3.976 2.813-5.554.187-.422.218-.828.093-1.219 0-.234.094-.352.282-.352Z"/><path fill="#333" d="m21.531 15.125.327-.379-.012-.01-.013-.01-.302.399Zm.352 1.805.233.442.043-.023.038-.03-.314-.39Zm-1.899 2.554.422.27.002-.004-.424-.266Zm.258 2.016-.108-.488-.01.002.118.486Zm8.625-1.523-.056-.497-.01.001.066.496Zm2.016-.375.145.478.024-.007.023-.01-.192-.461Zm1.992.726.39-.312v-.001l-.39.313Zm.492 2.086.382.323.017-.02.014-.021-.413-.282Zm-.445 1.125.487.115v-.003l-.487-.112Zm-3.61 8.953-.41-.285-.004.006.415.28Zm-3.89 1.664.47-.17-.003-.007-.467.177Zm-1.594-2.367.36-.346-.037-.04-.046-.03-.277.416Zm-.047-.258.203-.457-.097-.043h-.106v.5Zm.422.188.238-.44-.017-.01-.018-.007-.203.457Zm4.992-3.235-.453-.21-.006.012.46.198Zm-4.406-6.586-.095-.49.095.49Zm-2.18.422-.095-.49-1.093.211.885.677.303-.398Zm.703.703-.397.304.001.001.396-.305Zm-1.664 4.711-.405-.292-.005.007-.006.008.416.277Zm-3.492 3.914-.304-.396-.009.006-.008.007.321.383Zm-1.71.657-.332-.375-.06.054-.04.069.431.252Zm3.632-4.828-.436-.245.436.245Zm1.524-4.946.4-.3-.195-.26-.317.073.112.487Zm-2.836.797-.17-.47-.039.014-.036.02.245.436Zm-1.782-.117.295-.404-.01-.007-.285.41Zm.047-1.688.395.307.017-.02.014-.024-.426-.263Zm2.813-5.554-.457-.203-.008.017-.006.018.47.168Zm.093-1.219h-.5v.078l.024.074.477-.152Zm.282.148c-.02 0 .05.003.261.12.19.104.438.27.75.506l.603-.798a7.647 7.647 0 0 0-.868-.583c-.227-.126-.492-.245-.746-.245v1Zm.986.606c.268.23.449.419.56.566.119.16.11.211.11.18h1c0-.297-.15-.565-.31-.78a4.827 4.827 0 0 0-.707-.724l-.653.758Zm.67.746c0-.052.021-.05-.028.017a1.568 1.568 0 0 1-.279.274l.63.777c.182-.148.342-.302.459-.464.115-.159.218-.365.218-.604h-1Zm-.225.237a1.675 1.675 0 0 0-.42.351 6.878 6.878 0 0 0-.446.55 29.216 29.216 0 0 0-1.223 1.831l.847.53c.482-.768.874-1.355 1.179-1.765.153-.206.278-.36.378-.468.109-.118.156-.147.15-.144l-.465-.885Zm-2.087 2.728c-.361.566-.637 1.02-.825 1.357a5.464 5.464 0 0 0-.222.439 1.77 1.77 0 0 0-.07.184.803.803 0 0 0-.04.235h1c0 .053-.011.08-.005.06a.834.834 0 0 1 .03-.078c.037-.082.096-.2.182-.355.172-.31.435-.744.793-1.303l-.843-.539Zm-1.157 2.215a.713.713 0 0 0 .377.631c.188.104.406.127.592.127v-1a.665.665 0 0 1-.115-.008c-.022-.005-.016-.006.004.005a.275.275 0 0 1 .1.098.288.288 0 0 1 .042.147h-1Zm.969.758c.067 0 .139-.013.177-.02l.192-.039c.15-.032.357-.08.616-.143l-.236-.972a26.084 26.084 0 0 1-.747.17c-.05.008-.037.003-.002.003v1Zm.975-.2a102.988 102.988 0 0 1 8.583-1.516l-.132-.991c-2.936.392-5.825.903-8.667 1.53l.216.977Zm8.573-1.515c.844-.095 1.549-.224 2.105-.393l-.29-.957c-.476.144-1.115.265-1.927.357l.112.993Zm2.152-.41a4.7 4.7 0 0 1 .427-.159c.117-.035.16-.037.154-.037v-1c-.146 0-.302.037-.444.08-.15.046-.325.111-.521.193l.384.923Zm.581-.196c-.02 0 .044-.004.218.133.162.127.365.336.612.642l.779-.627a5.085 5.085 0 0 0-.772-.8c-.232-.183-.519-.348-.837-.348v1Zm.829.773c.273.343.467.618.59.83.136.233.144.32.144.311h1c0-.275-.133-.562-.279-.813a8.13 8.13 0 0 0-.675-.952l-.78.625Zm.734 1.141c0-.048.008-.081.01-.091l.004-.013a.824.824 0 0 1-.04.078c-.047.086-.125.21-.239.377l.826.564c.12-.177.218-.33.288-.455.034-.062.067-.126.092-.188a.729.729 0 0 0 .059-.272h-1Zm-.233.31c-.255.301-.424.78-.552 1.337l.975.223c.123-.538.251-.81.34-.914l-.764-.646Zm-.55 1.333c-.883 3.746-2.067 6.665-3.535 8.783l.823.57c1.563-2.257 2.786-5.307 3.685-9.123l-.974-.23Zm-3.538 8.79c-.55.815-1.05 1.4-1.5 1.775-.453.379-.81.511-1.085.511v1c.6 0 1.179-.286 1.726-.743.55-.46 1.112-1.13 1.688-1.986l-.83-.558ZM26.313 34.5c-.074 0-.245-.026-.42-.514l-.941.34c.23.637.653 1.174 1.36 1.174v-1Zm-.424-.521c-.327-.861-.902-1.706-1.7-2.536l-.721.692c.733.764 1.22 1.497 1.486 2.199l.935-.355Zm-1.784-2.606c-.027-.018-.02-.018-.003.003a.385.385 0 0 1 .085.249h-1c0 .192.095.33.156.402.065.075.142.134.208.178l.555-.832Zm.082.252a.408.408 0 0 1-.123.283.407.407 0 0 1-.283.123v-1a.594.594 0 0 0-.424.17.594.594 0 0 0-.17.424h1Zm-.609.363.422.188.406-.914-.422-.188-.406.914Zm.387.17c.49.265.927.47 1.308.61.376.138.728.224 1.04.224v-1c-.142 0-.368-.043-.696-.163a9.263 9.263 0 0 1-1.176-.55l-.476.88Zm2.348.834c.34 0 .65-.148.916-.355.268-.207.529-.5.784-.855.512-.711 1.058-1.751 1.641-3.099l-.918-.397c-.573 1.324-1.085 2.287-1.535 2.912-.224.313-.42.522-.584.648-.164.128-.262.146-.305.146v1Zm3.336-4.297c1.453-3.125 2.226-5.511 2.226-7.101h-1c0 1.347-.68 3.555-2.133 6.68l.907.421Zm2.226-7.101a.89.89 0 0 0-.124-.463.911.911 0 0 0-.344-.326c-.252-.14-.565-.18-.876-.18v1c.12 0 .21.008.278.02a.394.394 0 0 1 .112.034c.008.004-.01-.004-.027-.033-.018-.03-.019-.053-.019-.052h1Zm-1.344-.969c-1.208 0-3.164.267-5.837.782l.19.982c2.67-.515 4.543-.764 5.647-.764v-1Zm-5.837.782-2.18.422.19.982 2.18-.422-.19-.982Zm-2.388 1.31c.23.177.433.38.61.61l.794-.607c-.23-.301-.496-.567-.797-.797l-.607.795Zm.61.611c.146.19.244.341.303.457.064.124.062.167.062.152h1c0-.217-.08-.428-.172-.609a4.107 4.107 0 0 0-.4-.61l-.793.61Zm.365.61c0 .048-.018.165-.1.372-.076.199-.198.45-.369.754-.342.609-.863 1.4-1.569 2.378l.81.585c.716-.99 1.262-1.817 1.631-2.474.184-.328.33-.623.43-.88.097-.25.167-.503.167-.735h-1Zm-2.049 3.519c-1.104 1.656-2.232 2.915-3.38 3.795l.608.793c1.259-.964 2.459-2.315 3.604-4.033l-.832-.555Zm-3.397 3.808c-.43.36-.776.619-1.043.784a2.198 2.198 0 0 1-.318.169c-.083.034-.111.032-.099.032v1c.31 0 .642-.164.943-.35.326-.202.714-.494 1.16-.869l-.643-.766Zm-1.46.985c.046 0 .172.012.283.123a.407.407 0 0 1 .123.283h-1c0 .109.028.282.17.424.143.143.316.17.424.17v-1Zm.406.406a.398.398 0 0 1-.015.11l.01-.021c.017-.039.05-.1.101-.188l-.864-.504c-.058.1-.107.19-.144.269a1.18 1.18 0 0 0-.052.128.653.653 0 0 0-.036.206h1Zm-.004.023c1.291-1.144 2.534-2.806 3.738-4.959l-.873-.487c-1.172 2.097-2.35 3.654-3.528 4.697l.663.749Zm3.737-4.958c.585-1.043 1.03-1.954 1.331-2.73.298-.767.468-1.439.468-1.991h-1c0 .37-.12.905-.4 1.63-.278.716-.7 1.583-1.271 2.602l.872.49ZM22.313 23c0-.293-.155-.56-.311-.769l-.8.6a.912.912 0 0 1 .102.163c.016.036.009.035.009.006h1Zm-.823-.956c-1.167.268-2.134.539-2.894.814l.34.94c.708-.256 1.632-.516 2.777-.78l-.223-.974Zm-2.969.848c-.385.216-.583.264-.646.264v1c.343 0 .74-.17 1.135-.392l-.489-.872Zm-.646.264c.023 0-.015.004-.14-.058a3.366 3.366 0 0 1-.456-.29l-.59.807c.216.157.416.286.6.377.171.086.376.164.586.164v-1Zm-.606-.356a2.18 2.18 0 0 1-.37-.304.471.471 0 0 1-.032-.04l-.009-.013s.017.032.017.088h-1c0 .274.154.492.28.633.139.155.327.307.545.458l.569-.822Zm-.394-.269c0 .099-.036.15-.01.096.015-.03.044-.08.093-.157.098-.15.252-.362.468-.64l-.79-.613c-.221.285-.395.522-.516.707-.06.092-.113.181-.153.262a.798.798 0 0 0-.092.345h1Zm.582-.745c1.323-2.142 2.28-4.026 2.858-5.65l-.942-.335c-.547 1.533-1.465 3.352-2.767 5.46l.85.525Zm2.844-5.614c.23-.52.28-1.052.113-1.574l-.953.304c.083.26.07.539-.074.864l.914.406Zm.137-1.422c0-.064.014-.02-.04.049a.28.28 0 0 1-.11.083.19.19 0 0 1-.07.016v-1a.752.752 0 0 0-.6.276.907.907 0 0 0-.18.576h1Z"/></svg>
